!!!!SEGMENT: Fsc2014-Felix_Anna.krn
!!!id: Fsc2014
!!!AGN: Motet
!!!SCT: Seay (1979)
!!!voices: 4
!!!COM: Costanzo Festa
!!!OTL: Felix Anna
**kern	**kern	**kern	**kern
*part4	*part3	*part2	*part1
*staff4	*staff3	*staff2	*staff1
*I"Bassus	*I"Tenor	*I"Altus	*I"Superius
*I'B	*I'T	*I'A	*I'S
*clefF4	*clefGv2	*clefGv2	*clefG2
*k[]	*k[]	*k[]	*k[]
*C:	*C:	*C:	*C:
*M2/1	*M2/1	*M2/1	*M2/1
*met(C|)	*met(C|)	*met(C|)	*met(C|)
=1	=1	=1	=1
0r	0r	0c	0r
=2	=2	=2	=2
0r	0r	1e	0r
.	.	1f	.
=3	=3	=3	=3
0r	0r	1g	0g
.	.	2c	.
.	.	[2g	.
=4	=4	=4	=4
0r	0r	4g]	1b
.	.	4f	.
.	.	4e	.
.	.	4d	.
.	.	2e	1cc
.	.	4d	.
.	.	4c	.
=5	=5	=5	=5
0r	0r	2B	0dd
.	.	1G	.
.	.	[2g	.
=6	=6	=6	=6
0r	0r	2g]	1dd
.	.	4f	.
.	.	4e	.
.	.	1f	2r
.	.	.	2dd
=7	=7	=7	=7
0C	0r	2e	2cc
.	.	2c	1ee
.	.	2.e	.
.	.	.	4dd
.	.	4f	4cc
=8	=8	=8	=8
1E	0r	1g	2b
.	.	.	2cc
1F	.	2c	1a
.	.	[2d	.
=9	=9	=9	=9
1G	0G	2d]	1g
.	.	2B	.
2C	.	2c	1r
[2G	.	[2B	.
=10	=10	=10	=10
4G]	1B	4B]	2r
4F	.	4A	.
4E	.	4G	1gg
4D	.	4F	.
1E	1c	1G	.
.	.	.	2ee
=11	=11	=11	=11
[0D	0d	1A	1ff
.	.	1B	2dd
.	.	.	[2ff
=12	=12	=12	=12
0D]	1d	1A	4ff]
.	.	.	4ee
.	.	.	1dd
.	[1d	2r	.
.	.	2a	4cc
.	.	.	4b
=13	=13	=13	=13
0r	2d]	2f	2a
.	2c	2.g	2cc
.	2B	.	2dd
.	.	4f	.
.	2c	4e	[2ee
.	.	4d	.
=14	=14	=14	=14
0r	1A	1c	4ee]
.	.	.	4dd
.	.	.	1cc
.	1G	1d	.
.	.	.	2b
=15	=15	=15	=15
0F	0A	1.c	2.cc
.	.	.	4b
.	.	.	1a
.	.	2c	.
=16	=16	=16	=16
1E	0c	2.c	1g
.	.	4B	.
1F	.	1A	2r
.	.	.	2a
=17	=17	=17	=17
0G	0B	1G	2b
.	.	.	2.dd
.	.	2r	.
.	.	.	4cc
.	.	2g	2b
=18	=18	=18	=18
0A	0c	2f	2a
.	.	2e	1g
.	.	4f	.
.	.	4e	.
.	.	4d	2f#i
.	.	4c	.
=19	=19	=19	=19
0G	0d	2B	0g
.	.	1c	.
.	.	2B	.
=20	=20	=20	=20
1C	1e	2c	2r
.	.	2e	2g
2r	1d	2f	2a
2G	.	[2g	2b
=21	=21	=21	=21
1A	1c	2g]	1cc
.	.	2f#i	.
1G	1d	2g	1b
.	.	2d	.
=22	=22	=22	=22
[0D	2.d	1f	2a
.	.	.	1dd
.	4c	.	.
.	2B	1d	.
.	4A	.	4cc
.	4G	.	4b
=23	=23	=23	=23
1D]	1d	1f	1a
1r	1G	1g	2g
.	.	.	2b
=24	=24	=24	=24
1D	0r	2.f	[0a
.	.	4e	.
1F	.	2d	.
.	.	2c	.
=25	=25	=25	=25
1D	1r	1d	0a]
1F	2r	2c	.
.	[2d	2A	.
=26	=26	=26	=26
1G	2d]	1B	2r
.	2B	.	2e
2.F	2c	2A	2f
.	2A	[2d	2a
4E	.	.	.
=27	=27	=27	=27
2D	2B	2d]	2d
2C	2c	2e	1g
1D	1A	2.d	.
.	.	.	2f#i
.	.	4f	.
=28	=28	=28	=28
1E	1G	4e	1g
.	.	4d	.
.	.	1g	.
1D	1A	.	1dd
.	.	2f#i	.
=29	=29	=29	=29
1r	0G	1g	0dd
1G	.	1d	.
=30	=30	=30	=30
0D	1r	0f	1.dd
.	1d	.	.
.	.	.	4cc
.	.	.	4b
=31	=31	=31	=31
1G	1d	2.g	1b
.	.	4f	.
1A	2c	2e	2.cc
.	[2A	2c	.
.	.	.	4b
=32	=32	=32	=32
2F	2A]	1d	2a
2G	1d	.	4g
.	.	.	4f
1E	.	1e	1g
.	2c	.	.
=33	=33	=33	=33
1D	0d	1A	2f
.	.	.	2d
2r	.	1d	2.f
[2D	.	.	.
.	.	.	4g
=34	=34	=34	=34
2D]	1A	1f	1.a
1F	.	.	.
.	1c	4c	.
.	.	4d	.
[2C	.	4e	4g
.	.	4f	4f
=35	=35	=35	=35
4C]	1G	2g	4e
4D	.	.	4d
2E	.	2c	1g
1D	1A	1d	.
.	.	.	2f#i
=36	=36	=36	=36
1E	1G	2B	1g
.	.	2.e	.
1C	1G	.	2r
.	.	4f	.
.	.	2g	2g
=37	=37	=37	=37
1G	0r	2d	2.b
.	.	2.g	.
.	.	.	4cc
1r	.	.	2dd
.	.	4f	.
.	.	4e	[2ee
.	.	4d	.
=38	=38	=38	=38
0r	0r	2c	2ee]
.	.	2d	1dd
.	.	1e	.
.	.	.	2cc#i
=39	=39	=39	=39
0G	0r	2d	1dd
.	.	2.g	.
.	.	.	1b
.	.	4f	.
.	.	4e	.
.	.	4d	.
=40	=40	=40	=40
1A	1r	2c	1cc
.	.	2A	.
1B	1d	1G	1dd
=41	=41	=41	=41
2.c	1e	0r	1g
4B	.	.	.
2A	1f	.	1r
2D	.	.	.
=42	=42	=42	=42
2E	2.g	0r	0r
1G	.	.	.
.	4f	.	.
.	2e	.	.
4F	[2d	.	.
4E	.	.	.
=43	=43	=43	=43
4F	4d]	0r	0r
4E	4c	.	.
4D	1c	.	.
4C	.	.	.
1D	.	.	.
.	2B	.	.
=44	=44	=44	=44
2C	0c	0r	0r
2.F	.	.	.
4G	.	.	.
4A	.	.	.
4B	.	.	.
=45	=45	=45	=45
2c	2r	0r	0r
2B	2d	.	.
2A	2.f	.	.
2D	.	.	.
.	4e	.	.
=46	=46	=46	=46
2.F	2d	0r	0r
.	2c	.	.
4E	.	.	.
2D	2d	.	.
2C	[2e	.	.
=47	=47	=47	=47
1D	4e]	0r	0r
.	4d	.	.
.	1d	.	.
1E	.	.	.
.	2c#i	.	.
=	=	=	=
*M3/1	*M3/1	*M3/1	*M3/1
*met(3)	*met(3)	*met(3)	*met(3)
0D	0d	0.r	0dd
1r	1e	.	1b
=48	=48	=48	=48
0G	0d	0g	0dd
1A	1r	1e	1cc
=49	=49	=49	=49
1G	0d	1g	1b
1D	.	1f	1.a
1E	1B	[1e	.
.	.	.	2g
=50	=50	=50	=50
1C	1c	1e]	0g
0D	0A	0d	.
.	.	.	1f#i
=	=	=	=
*M2/1	*M2/1	*M2/1	*M2/1
*met(C|)	*met(C|)	*met(C|)	*met(C|)
0E	1G	2B	0g
.	.	2.G	.
.	1r	.	.
.	.	4A	.
.	.	4B	.
.	.	4c	.
=51	=51	=51	=51
1D	0r	4d	2r
.	.	4e	.
.	.	1f	1a
1r	.	.	.
.	.	2e	2g
=52	=52	=52	=52
0r	0r	4f	1a
.	.	4e	.
.	.	4d	.
.	.	4c	.
.	.	1d	1b
=53	=53	=53	=53
2r	2r	1c	1cc
1F	1A	.	.
.	.	1r	1r
2E	2G	.	.
=54	=54	=54	=54
4F	1A	1r	0r
4E	.	.	.
4D	.	.	.
4C	.	.	.
1D	1B	2r	.
.	.	2d	.
=55	=55	=55	=55
1C	1c	1e	2r
.	.	.	1cc
1G	1r	1d	.
.	.	.	2b
=56	=56	=56	=56
2r	2r	2c	2a
2G	2B	2d	2g
2F	2c	2A	2a
2D	2d	2d	[2b
=57	=57	=57	=57
1E	1G	2B	4b]
.	.	.	4a
.	.	2c	1g
1D	1A	2.d	.
.	.	.	2f#i
.	.	4f	.
=58	=58	=58	=58
0E	1G	2e	1g
.	.	1d	.
.	1r	.	2r
.	.	2c#i	2g
=59	=59	=59	=59
0D	0A	[0d	2f
.	.	.	4d
.	.	.	4e
.	.	.	4f
.	.	.	4g
.	.	.	[2a
=60	=60	=60	=60
0r	0B	0d]	2a]
.	.	.	4g#i
.	.	.	4f#i
.	.	.	1g#i
=61	=61	=61	=61
0D	0A	2r	0a
.	.	2.d	.
.	.	4e	.
.	.	2f	.
=62	=62	=62	=62
0E	1G	2.g	0r
.	.	4f	.
.	[1G	2e	.
.	.	4d	.
.	.	4c	.
=63	=63	=63	=63
0D	2G]	2B	0dd
.	4F	1c	.
.	4E	.	.
.	1F	.	.
.	.	2B	.
=64	=64	=64	=64
1C	[0G	0c	0ee
[1C	.	.	.
=65	=65	=65	=65
2C]	0G_	1r	0dd
4BB	.	.	.
4AA	.	.	.
1BB	.	1d	.
=66	=66	=66	=66
0C	0G_	0e	1cc
.	.	.	[1cc
=67	=67	=67	=67
1r	0G]	0d	2cc]
.	.	.	4b
.	.	.	4a
1G	.	.	1b
=68	=68	=68	=68
1A	0r	1c	1.cc
[1F	.	1c	.
.	.	.	2b
=69	=69	=69	=69
2F]	0A	1r	2.a
2E	.	.	.
.	.	.	4g
1F	.	1f	1a
=70	=70	=70	=70
0G	0B	2e	1g
.	.	1d	.
.	.	.	[1g
.	.	4c	.
.	.	4B	.
=71	=71	=71	=71
1r	0A	1c	2g]
.	.	.	4f#i
.	.	.	4e
1D	.	2r	1f#i
.	.	2d	.
=72	=72	=72	=72
1E	0G	2B	[0gl
.	.	2.c	.
[1C	.	.	.
.	.	4d	.
.	.	4e	.
.	.	4f	.
=73	=73	=73	=73
2C]	[0Gl	2g	0g_
2BB	.	2d	.
1C	.	1e	.
=74	=74	=74	=74
00Gl	00G]	00dl	00g]
==	==	==	==
*-	*-	*-	*-
!!!system-decoration: [*]
!!!RDF**kern: i = editorial accidental
!!!RDF**kern: l = terminal long
!!!ENC: Benjamin Ory
!!!END: 2022/2/12
!!!EED: Benjamin Ory
!!!EEV: 2022/02/12
!!!YEC: Copyright 2022 Benjamin Ory, All Rights Reserved
!!!ONB: Translated from MusicXML on 2022/02/12
